X: 1
T:Dance All Night
S:via PR
M:4/4
L:1/4
K:G
e/2f/2|"G"gg/2a/2 gd/2c/2|"G"B/2G/2A/2G/2 GBGB|\
"D"A/2G/2F/2E/2 D/2F/2A/2c/2|"G"B/2GBG/2 B/2 GBe/2f/2|
"G"gg/2a/2 g/2e/2d/2c/2|"G"B/2G/2A/2G/2 GBGB|"D"A/2G/2F/2E/2 D/2F/2A/2c/2|\
"G"B/2GBG/2 B/2 GB:|
e/2f/2|"G"gg/2a/2 g/2e/2d/2e/2|g/2f/2g/2a/2 bb/2e/2|\
"D"f/2e/2f/2g/2 a/2f/2a/2f/2|
"G"g/2f/2g/2a/2 "C"g/2e/2d/2e/2|"G"gg/2a/2 g/2e/2d/2e/2|g/2f/2g/2a/2 bb|\
"D"d'd' "D7"e/2f3/2|"G"g3/2a/2 g::
G/2E/2|"G"D/2B,/2D/2G/2 D/2B,/2D/2G/2|"C"E/2CEC/2 E/2 CECE|
"D"A/2B/2A/2F/2 D/2F/2A/2c/2|"G"B/2GBG/2 B/2 GBG/2E/2|\
"G"D/2B,/2D/2G/2 D/2B,/2D/2G/2|
"C"E/2CEC/2 E/2 CECE|"D"A/2B/2A/2F/2 D/2F/2A/2c/2|\
"G"B/2GBG/2 B/2 GB:|
